src/assets/images/coins/XMR.svg

<svg height="40" width="40" xmlns="http://www.w3.org/2000/svg"><g fill-rule="evenodd"><path d="m17.01 25.479-5.673-5.674v10.589h-8.427c3.511 5.76 9.852 9.606 17.089 9.606 7.238 0 13.579-3.846 17.09-9.606h-8.427v-10.589l-5.673 5.674-2.99 2.988-2.988-2.988z" fill="#4c4c4c"/><path d="m20 0c-11.044 0-20 8.956-20 20 0 2.208.358 4.331 1.018 6.317h5.982v-16.827l13 13 12.999-13v16.827h5.982a19.97 19.97 0 0 0 1.019-6.317c0-11.045-8.956-20-20-20" fill="#f60"/></g></svg>

<svg xmlns="http://www.w3.org/2000/svg" width="40" height="40">
    <path fill="#4C4C4C" fill-rule="evenodd" d="M17.01 25.479l-5.673-5.674v10.589H2.91C6.421 36.154 12.762 40 19.999 40c7.238 0 13.579-3.846 17.09-9.606h-8.427V19.805l-5.673 5.674-2.99 2.988-2.988-2.988h-.001z"/>
    <path fill="#F60" fill-rule="evenodd" d="M20 0C8.956 0 0 8.956 0 20c0 2.208.358 4.331 1.018 6.317H7V9.49l13 13 12.999-13v16.827h5.982A19.97 19.97 0 0 0 40 20C40 8.955 31.044 0 20 0"/>
</svg>
